X: 2116
T: Ömrüm Artar Sana Baktıkça
C: Bîmen Şen
O: Turkey
F: http://compmusic.upf.edu/node/140
N: hicaz--sarki--agiraksak--omrum_artar--bimen_sen
N: makam= hicaz
N: form= sarki
N: usul= agiraksak = 9/4
M: 9/4
L: 1/16
K: C _7/8B ^f ^c 
Q: 1/4=60
%%MIDI tuningsystem comma53
c2d4d2 d4 e=fed cdcB AGAB c2cd cdcd cBBA  | 
w:  ARANAĞME  | 
A2g4fe d2f4ed d2a2 g2f2 efef ag^1/4fe d4  | 
w:   | 
cded e2dc Bcdc d2cB ABcB c2BA d3/2c/de dcBA G4  | 
w:   | 
A2B4A2 B2A2 g=fed c3d cBBA A4 GABc d4  | 
w:   | 
c2d4d2 d4 e=fed cdcB AGAB c2cd cdcd cBBA  | 
w:  ARANAĞME  | 
A2g4fe d2f4ed d2a2 g2f2 efef ag^1/4fe d4  | 
w:   | 
cded e2dc Bcdc d2cB ABcB c2BA d3/2c/de dcBA G4  | 
w:   | 
A2B4A2 B2A2 g=fed c3d cBBA A8 z4  | \
w:   | 
z8 z2d4e2 =f3e d4 c4 d4 c4  | 
w:  Öm rüm_ ar *  *  tar   | 
d2e=f edcB c2d4f2 e3d c2e2 d3c B2d2 c2B2  | \
w:  *  *  *  *  *  *  *  *  sa na  bak *  *  *  tık  | 
cdcB A4 z2ed c2d2 e8 (3g2=f2e2 (3d2c2B2 A4  | 
w:  *  *  *  *  *  ça  *  *  pe res tiş  | 
g2fe f2g2 a2f4d2 e3d =fedc d6ef eddc  | 
w:  *  *  *  *  *  *  *  *  *  *  le  *  be *  nim   SAZ  | 
defg afge d2g2 f2g2 g=ffe d4 e4 f4 e2f2  | 
w:  *  *  *  *  *  *  *  *  *  Câ *  nı mın  *  *  *  *  câ  | 
g2ag =f2ed c2d4f2 e3d c2e2 d3c B2d2 cBBA  | 
w:  *  *  *  *  *  *  *  nı  mı sın  *  *  *  rû  | 
A8 z2A4B2 c2d2 cBBA A8 G4  | =f3/2e/de d2c2 d3/2c/Bc B2A2 A2GF cB{c}BA A6ef eddc  | 
w:  *  hu  mu sun  *  *  *  *  *  şûh_  |  *  *  *  *  *  *  *  *  *  *  *  *  *  *  *  i  *  *  şe *  nim   SAZ  | 
defg afge d2g2 f2g2 g=ffe d4 e4 f4 e2f2  | 
w:  *  *  *  *  *  *  *  *  *  Câ *  nı mın  *  *  *  *  câ  | 
g2ag =f2ed c2d4f2 e3d c2e2 d3c B2d2 cBBA  | 
w:  *  *  *  *  *  *  *  nı  mı sın  *  *  *  rû  | 
A8 z2A4B2 c2d2 cBBA A8 G4  | =f3/2e/de d2c2 d3/2c/Bc B2A2 A2GF cB{c}BA A6ag g^ff^e  | 
w:  *  hu  mu sun  *  *  *  *  *  şûh_  |  *  *  *  *  *  *  *  *  *  *  *  *  *  *  *  i  *  *  şe *  nim   SAZ  | 
f3g f^ef2 z4 d2f2 f8 g4 a4 g2f2  | \
w:  *  *  *  *  *  Se ni  gör dük  | 
g2^1/4fe e6e4=f2 e2d4e2 d2=c4d2 d3c  | 
w:  *  *  *  *  çe  şi fâ *  *  yâb   | 
=c3_1/4B B4 z2B4^c2 d8 e2=fe d2c_7/8B A4  | \
w:  *  *  *  o lu yor  has  | 
g2fe f2g2 a2f4d2 e3d =fedc d6ef eddc  | 
w:  has *  *  *  *  *  *  *  *  *  ta  *  te *  nim   SAZ  | 
defg afge d2g2 f2g2 g=ffe d4 e4 f4 e2f2  | 
w:  *  *  *  *  *  *  *  *  *  Câ *  nı mın  *  *  *  *  câ  | 
g2ag =f2ed c2d4f2 e3d c2e2 d3c B2d2 cBBA  | 
w:  *  *  *  *  *  *  *  nı  mı sın  *  *  *  rû  | 
A8 z2A4B2 c2d2 cBBA A8 G4  | =f3/2e/de d2c2 d3/2c/Bc B2A2 A2GF cB{c}BA A6ef eddc  | 
w:  *  hu  mu sun  *  *  *  *  *  şûh_  |  *  *  *  *  *  *  *  *  *  *  *  *  *  *  *  i  *  *  şe *  nim   SAZ  | 
defg afge d2g2 f2g2 g=ffe d4 e4 f4 e2f2  | 
w:  *  *  *  *  *  *  *  *  *  Câ *  nı mın  *  *  *  *  câ  | 
g2ag =f2ed c2d4f2 e3d c2e2 d3c B2d2 cBBA  | 
w:  *  *  *  *  *  *  *  nı  mı sın  *  *  *  rû  | 
A8 z2A4B2 c2d2 cBBA A8 G4  | =f3/2e/de d2c2 d3/2c/Bc B2A2 A2GF cB{c}BA A8 z4  | 
w:  *  hu  mu sun  *  *  *  *  *  şûh_  |  *  KARAR *  *  *  *  *  *  *  *  *  *  *  *  *  i  *  *  şe *  nim    | 
|


